actions/symbolic/edit-clear-symbolic-rtl.svg

<?xml version="1.0" encoding="UTF-8" standalone="no"?>
<svg
   id="svg6"
   version="1.1"
   width="16"
   height="16"
   xmlns="http://www.w3.org/2000/svg"
   xmlns:svg="http://www.w3.org/2000/svg"
   xmlns:rdf="http://www.w3.org/1999/02/22-rdf-syntax-ns#"
   xmlns:cc="http://creativecommons.org/ns#"
   xmlns:dc="http://purl.org/dc/elements/1.1/">
  <metadata
     id="metadata12">
    <rdf:RDF>
      <cc:Work
         rdf:about="">
        <dc:format>image/svg+xml</dc:format>
        <dc:type
           rdf:resource="http://purl.org/dc/dcmitype/StillImage" />
      </cc:Work>
    </rdf:RDF>
  </metadata>
  <defs
     id="defs10" />
  <path
     id="path232"
     style="fill:#555761;fill-opacity:1;stroke:none;stroke-width:1px;stroke-linecap:butt;stroke-linejoin:miter;stroke-opacity:1"
     d="m 9.4656199,3 c 0.6366661,3.001e-4 0.9663461,0.2690642 1.3945311,0.7402344 l 3.853516,4.0195312 c 0.381777,0.4196505 0.381777,1.0608183 0,1.4804688 L 10.860151,13.259766 C 10.431966,13.730935 10.102286,13.9997 9.4656199,14 H 2.5007761 c -0.828426,0 -1.5,-0.671574 -1.5,-1.5 v -8 c 0,-0.8284263 0.671574,-1.5 1.5,-1.5 z M 8.092573,5.7167969 c -0.191714,0 -0.3823958,0.073802 -0.5292969,0.2207031 L 6.2371042,7.2636719 4.9109321,5.9375 c -0.293802,-0.2938023 -0.766745,-0.2938019 -1.060547,0 l -0.175781,0.1757812 c -0.293802,0.2938026 -0.293802,0.7667446 0,1.0605469 L 5.0007761,8.5 3.6746041,9.8261719 c -0.293802,0.2938021 -0.293802,0.7667441 0,1.0605471 l 0.175781,0.175781 c 0.293803,0.293802 0.766745,0.293803 1.060547,0 L 6.2371042,9.7363281 7.5632761,11.0625 c 0.2938023,0.293802 0.7667443,0.293803 1.0605469,0 l 0.1777343,-0.175781 c 0.2938026,-0.293803 0.2938023,-0.766745 0,-1.0605471 L 7.4753855,8.5 8.8015573,7.1738281 c 0.2938024,-0.2938023 0.2938023,-0.7667446 0,-1.0605469 L 8.623823,5.9375 C 8.4769218,5.7905989 8.2842869,5.7167968 8.092573,5.7167969 Z" />
</svg>

<svg
        xmlns='http://www.w3.org/2000/svg'
        xmlns:svg='http://www.w3.org/2000/svg'
        id='svg6'
        width='16'
        height='16'>
  <path
          id='path232'
          fill='url(#gpa:foreground) #555761'
          fill-opacity='1'
          fill-rule='nonzero'
          stroke='none'
          stroke-opacity='1'
          stroke-width='1px'
          stroke-linecap='butt'
          stroke-linejoin='miter'
          d='M 9.46562 3 C 10.1023 3.0003, 10.432 3.26906, 10.8602 3.74023 L 14.7137 7.75977 C 15.0954 8.17942, 15.0954 8.82058, 14.7137 9.24023 L 10.8602 13.2598 C 10.432 13.7309, 10.1023 13.9997, 9.46562 14 L 2.50078 14 C 1.67235 14, 1.00078 13.3284, 1.00078 12.5 L 1.00078 4.5 C 1.00078 3.67157, 1.67235 3, 2.50078 3 Z M 8.09257 5.7168 C 7.90086 5.7168, 7.71018 5.7906, 7.56328 5.9375 L 6.2371 7.26367 L 4.91093 5.9375 C 4.61713 5.6437, 4.14419 5.6437, 3.85039 5.9375 L 3.6746 6.11328 C 3.3808 6.40708, 3.3808 6.88003, 3.6746 7.17383 L 5.00078 8.5 L 3.6746 9.82617 C 3.3808 10.12, 3.3808 10.5929, 3.6746 10.8867 L 3.85039 11.0625 C 4.14419 11.3563, 4.61713 11.3563, 4.91093 11.0625 L 6.2371 9.73633 L 7.56328 11.0625 C 7.85708 11.3563, 8.33002 11.3563, 8.62382 11.0625 L 8.80156 10.8867 C 9.09536 10.5929, 9.09536 10.12, 8.80156 9.82617 L 7.47539 8.5 L 8.80156 7.17383 C 9.09536 6.88003, 9.09536 6.40708, 8.80156 6.11328 L 8.62382 5.9375 C 8.47692 5.7906, 8.28429 5.7168, 8.09257 5.7168 Z'
          class="foreground">
  </path>
</svg>
